X:1
T: Scotty O'Neil
C: Bob McQuillen 1973
M: C|
Z: Transcribed to abc by Mary Lou Knack
R: reel
K: D
AG| "D"F2D2 A2F2| "G"dedc BABc| "D"d2A2 G2F2| "A"F2 E4 AG|
    "D"F2D2 A2F2| "G"dedc BABc| "D"d2A2 "A"ABAG| "D"F2 D4 :|
|:AG| "D"F2A2 f2e2| "G"d2c2 B3c| "D"d2A2 G2F2| "A"F2 E4 AG|
    "D"F2D2 f3e| "G"dedc BABc| "D"d2A2 "A"ABAG| "D"F2 D4 :|
%%text Roaring Jelly  R-322

